icons/plexis/48/apx.svg

<svg viewBox="0 0 48 48" xmlns="http://www.w3.org/2000/svg" xmlns:xlink="http://www.w3.org/1999/xlink">
  <linearGradient id="a" gradientTransform="matrix(0 -1 1 0 -.0000015 47.999998)" gradientUnits="userSpaceOnUse" x1="1" x2="47">
    <stop offset="0" stop-color="#e4e4e4"/>
    <stop offset="1" stop-color="#eee"/>
  </linearGradient>
  <path d="m47 24c0 22.703-.297 23-23 23-22.703 0-23-.297-23-23 0-22.703.297-23 23-23 22.703 0 23 .297 23 23z" fill="url(#a)"/>
  <path d="m25 12l-13 13 12 12v10c .674 0 1.34-.035 2-.092v-9.908l12-12zm0 3l10 10-10 10-10-10zm0 3l-7 7 7 7 7-7z" fill-opacity=".098" fill-rule="evenodd"/>
  <path d="m23 35v11.975c.332.014.665.025 1 .025.335 0 .668-.011 1-.025v-11.975z" fill="#808080"/>
  <path d="m24 11l-13 13 13 13 13-13zm0 3l10 10-10 10-10-10z" fill="#808080" fill-rule="evenodd"/>
  <path d="m-4.95 28.991h9.899v9.899h-9.899z" fill="#0ec6a2" fill-rule="evenodd" transform="matrix(.70710678 -.70710678 .70710678 .70710678 0 0)"/>
</svg>

<svg xmlns="http://www.w3.org/2000/svg" viewBox="0 0 48 48">
 <defs>
  <linearGradient id="linearGradient3764" x1="1" x2="47" gradientUnits="userSpaceOnUse" gradientTransform="matrix(0,-1,1,0,-1.5e-6,47.999998)">
   <stop style="stop-color:#e4e4e4;stop-opacity:1"/>
   <stop offset="1" style="stop-color:#eee;stop-opacity:1"/>
  </linearGradient>
 </defs>
 <g>
  
  
  
 </g>
 <g>
  <path d="m 47,24 C 47,46.703 46.703,47 24,47 1.297,47 1,46.703 1,24 1,1.297 1.297,1 24,1 46.703,1 47,1.297 47,24 z" style="fill:url(#linearGradient3764);fill-opacity:1"/>
 </g>
 <path d="m 25 12 l -13 13 l 12 12 l 0 10 c 0.674 0 1.34 -0.035 2 -0.092 l 0 -9.908 l 12 -12 l -13 -13 z m 0 3 l 10 10 l -10 10 l -10 -10 l 10 -10 z m 0 3 l -7 7 l 7 7 l 7 -7 l -7 -7 z" style="fill:#000;fill-opacity:0.098;stroke:none;fill-rule:evenodd"/>
 <g>
  <path d="m 23 35 l 0 11.975 c 0.332 0.014 0.665 0.025 1 0.025 c 0.335 0 0.668 -0.011 1 -0.025 l 0 -11.975 l -2 0 z" style="fill:#808080;fill-opacity:1"/>
  <path d="M 24 11 L 11 24 L 24 37 L 37 24 L 24 11 z M 24 14 L 34 24 L 24 34 L 14 24 L 24 14 z " style="fill:#808080;fill-opacity:1;stroke:none;fill-rule:evenodd"/>
  <rect transform="matrix(0.70710678,-0.70710678,0.70710678,0.70710678,0,0)" y="28.991" x="-4.95" height="9.899" width="9.899" style="fill:#0ec6a2;fill-opacity:1;stroke:none;fill-rule:evenodd"/>
 </g>
 <g>
  
 </g>
</svg>
